X: 28710
T: My Darling Asleep
R: jig
M: 6/8
K: Dmajor
ag|:"D"fed "A"cAA|"G"BGB "D"A2G|FAA def|"G"gfg "A"eag|
"D"f2d "A"cAA|"G"BGG "D"A2G|FAA def|1 "A"gec "D"d2e:|2 "A"gec "D"d2G||
|:"D"FAA dAG|FAA BAG|F2A def|"G"gfg "A"eag|
"D"f2d "A"cAc|"G"BGB "D"A2G|FAA def|1 "A"gec "D"d2G:|2 "A"gec "D"d2e||

